static/img/kroki/a06bd7c77a961918ab6a5b4fee03725b.svg

<?xml version="1.0" encoding="us-ascii" standalone="no"?><svg xmlns="http://www.w3.org/2000/svg" xmlns:xlink="http://www.w3.org/1999/xlink" contentStyleType="text/css" height="152px" preserveAspectRatio="none" style="width:3186px;height:152px;" version="1.1" viewBox="0 0 3186 152" width="3186px" zoomAndPan="magnify"><defs/><g><!--class azure_machine_learning_registry--><g id="elem_azure_machine_learning_registry"><rect codeLine="23" fill="#3D176E" height="39.7891" id="azure_machine_learning_registry" rx="2.5" ry="2.5" style="stroke:#000D19;stroke-width:0.5;" width="320" x="1635.5" y="7"/><ellipse cx="1650.5" cy="26.8945" fill="#ADD1B2" rx="11" ry="11" style="stroke:#181818;stroke-width:1.0;"/><path d="M1653.4688,32.5352 Q1652.8906,32.832 1652.25,32.9727 Q1651.6094,33.1289 1650.9063,33.1289 Q1648.4063,33.1289 1647.0781,31.4883 Q1645.7656,29.832 1645.7656,26.707 Q1645.7656,23.582 1647.0781,21.9258 Q1648.4063,20.2695 1650.9063,20.2695 Q1651.6094,20.2695 1652.25,20.4258 Q1652.9063,20.582 1653.4688,20.8789 L1653.4688,23.5977 Q1652.8438,23.0195 1652.25,22.7539 Q1651.6563,22.4727 1651.0313,22.4727 Q1649.6875,22.4727 1649,23.5508 Q1648.3125,24.6133 1648.3125,26.707 Q1648.3125,28.8008 1649,29.8789 Q1649.6875,30.9414 1651.0313,30.9414 Q1651.6563,30.9414 1652.25,30.6758 Q1652.8438,30.3945 1653.4688,29.8164 L1653.4688,32.5352 Z " fill="#000000"/><text fill="#D9B8FF" font-family="Helvetica" font-size="17" lengthAdjust="spacing" textLength="278" x="1669.5" y="32.7798">azure_machine_learning_registry</text></g><!--class azure_machine_learning_registry_code_container--><g id="elem_azure_machine_learning_registry_code_container"><rect codeLine="26" fill="#3D176E" height="39.7891" id="azure_machine_learning_registry_code_container" rx="2.5" ry="2.5" style="stroke:#000D19;stroke-width:0.5;" width="455" x="7" y="106.79"/><ellipse cx="22" cy="126.6845" fill="#ADD1B2" rx="11" ry="11" style="stroke:#181818;stroke-width:1.0;"/><path d="M24.9688,132.3252 Q24.3906,132.622 23.75,132.7627 Q23.1094,132.9189 22.4063,132.9189 Q19.9063,132.9189 18.5781,131.2783 Q17.2656,129.622 17.2656,126.497 Q17.2656,123.372 18.5781,121.7158 Q19.9063,120.0595 22.4063,120.0595 Q23.1094,120.0595 23.75,120.2158 Q24.4063,120.372 24.9688,120.6689 L24.9688,123.3877 Q24.3438,122.8095 23.75,122.5439 Q23.1563,122.2627 22.5313,122.2627 Q21.1875,122.2627 20.5,123.3408 Q19.8125,124.4033 19.8125,126.497 Q19.8125,128.5908 20.5,129.6689 Q21.1875,130.7314 22.5313,130.7314 Q23.1563,130.7314 23.75,130.4658 Q24.3438,130.1845 24.9688,129.6064 L24.9688,132.3252 Z " fill="#000000"/><text fill="#D9B8FF" font-family="Helvetica" font-size="17" lengthAdjust="spacing" textLength="413" x="41" y="132.5698">azure_machine_learning_registry_code_container</text></g><!--class azure_machine_learning_registry_component_container--><g id="elem_azure_machine_learning_registry_component_container"><rect codeLine="29" fill="#3D176E" height="39.7891" id="azure_machine_learning_registry_component_container" rx="2.5" ry="2.5" style="stroke:#000D19;stroke-width:0.5;" width="511" x="497" y="106.79"/><ellipse cx="512" cy="126.6845" fill="#ADD1B2" rx="11" ry="11" style="stroke:#181818;stroke-width:1.0;"/><path d="M514.9688,132.3252 Q514.3906,132.622 513.75,132.7627 Q513.1094,132.9189 512.4063,132.9189 Q509.9063,132.9189 508.5781,131.2783 Q507.2656,129.622 507.2656,126.497 Q507.2656,123.372 508.5781,121.7158 Q509.9063,120.0595 512.4063,120.0595 Q513.1094,120.0595 513.75,120.2158 Q514.4063,120.372 514.9688,120.6689 L514.9688,123.3877 Q514.3438,122.8095 513.75,122.5439 Q513.1563,122.2627 512.5313,122.2627 Q511.1875,122.2627 510.5,123.3408 Q509.8125,124.4033 509.8125,126.497 Q509.8125,128.5908 510.5,129.6689 Q511.1875,130.7314 512.5313,130.7314 Q513.1563,130.7314 513.75,130.4658 Q514.3438,130.1845 514.9688,129.6064 L514.9688,132.3252 Z " fill="#000000"/><text fill="#D9B8FF" font-family="Helvetica" font-size="17" lengthAdjust="spacing" textLength="469" x="531" y="132.5698">azure_machine_learning_registry_component_container</text></g><!--class azure_machine_learning_registry_data_container--><g id="elem_azure_machine_learning_registry_data_container"><rect codeLine="32" fill="#3D176E" height="39.7891" id="azure_machine_learning_registry_data_container" rx="2.5" ry="2.5" style="stroke:#000D19;stroke-width:0.5;" width="454" x="1043.5" y="106.79"/><ellipse cx="1058.5" cy="126.6845" fill="#ADD1B2" rx="11" ry="11" style="stroke:#181818;stroke-width:1.0;"/><path d="M1061.4688,132.3252 Q1060.8906,132.622 1060.25,132.7627 Q1059.6094,132.9189 1058.9063,132.9189 Q1056.4063,132.9189 1055.0781,131.2783 Q1053.7656,129.622 1053.7656,126.497 Q1053.7656,123.372 1055.0781,121.7158 Q1056.4063,120.0595 1058.9063,120.0595 Q1059.6094,120.0595 1060.25,120.2158 Q1060.9063,120.372 1061.4688,120.6689 L1061.4688,123.3877 Q1060.8438,122.8095 1060.25,122.5439 Q1059.6563,122.2627 1059.0313,122.2627 Q1057.6875,122.2627 1057,123.3408 Q1056.3125,124.4033 1056.3125,126.497 Q1056.3125,128.5908 1057,129.6689 Q1057.6875,130.7314 1059.0313,130.7314 Q1059.6563,130.7314 1060.25,130.4658 Q1060.8438,130.1845 1061.4688,129.6064 L1061.4688,132.3252 Z " fill="#000000"/><text fill="#D9B8FF" font-family="Helvetica" font-size="17" lengthAdjust="spacing" textLength="412" x="1077.5" y="132.5698">azure_machine_learning_registry_data_container</text></g><!--class azure_machine_learning_registry_environment_container--><g id="elem_azure_machine_learning_registry_environment_container"><rect codeLine="35" fill="#3D176E" height="39.7891" id="azure_machine_learning_registry_environment_container" rx="2.5" ry="2.5" style="stroke:#000D19;stroke-width:0.5;" width="526" x="1532.5" y="106.79"/><ellipse cx="1547.5" cy="126.6845" fill="#ADD1B2" rx="11" ry="11" style="stroke:#181818;stroke-width:1.0;"/><path d="M1550.4688,132.3252 Q1549.8906,132.622 1549.25,132.7627 Q1548.6094,132.9189 1547.9063,132.9189 Q1545.4063,132.9189 1544.0781,131.2783 Q1542.7656,129.622 1542.7656,126.497 Q1542.7656,123.372 1544.0781,121.7158 Q1545.4063,120.0595 1547.9063,120.0595 Q1548.6094,120.0595 1549.25,120.2158 Q1549.9063,120.372 1550.4688,120.6689 L1550.4688,123.3877 Q1549.8438,122.8095 1549.25,122.5439 Q1548.6563,122.2627 1548.0313,122.2627 Q1546.6875,122.2627 1546,123.3408 Q1545.3125,124.4033 1545.3125,126.497 Q1545.3125,128.5908 1546,129.6689 Q1546.6875,130.7314 1548.0313,130.7314 Q1548.6563,130.7314 1549.25,130.4658 Q1549.8438,130.1845 1550.4688,129.6064 L1550.4688,132.3252 Z " fill="#000000"/><text fill="#D9B8FF" font-family="Helvetica" font-size="17" lengthAdjust="spacing" textLength="484" x="1566.5" y="132.5698">azure_machine_learning_registry_environment_container</text></g><!--class azure_machine_learning_registry_model_container--><g id="elem_azure_machine_learning_registry_model_container"><rect codeLine="38" fill="#3D176E" height="39.7891" id="azure_machine_learning_registry_model_container" rx="2.5" ry="2.5" style="stroke:#000D19;stroke-width:0.5;" width="469" x="2094" y="106.79"/><ellipse cx="2109" cy="126.6845" fill="#ADD1B2" rx="11" ry="11" style="stroke:#181818;stroke-width:1.0;"/><path d="M2111.9688,132.3252 Q2111.3906,132.622 2110.75,132.7627 Q2110.1094,132.9189 2109.4063,132.9189 Q2106.9063,132.9189 2105.5781,131.2783 Q2104.2656,129.622 2104.2656,126.497 Q2104.2656,123.372 2105.5781,121.7158 Q2106.9063,120.0595 2109.4063,120.0595 Q2110.1094,120.0595 2110.75,120.2158 Q2111.4063,120.372 2111.9688,120.6689 L2111.9688,123.3877 Q2111.3438,122.8095 2110.75,122.5439 Q2110.1563,122.2627 2109.5313,122.2627 Q2108.1875,122.2627 2107.5,123.3408 Q2106.8125,124.4033 2106.8125,126.497 Q2106.8125,128.5908 2107.5,129.6689 Q2108.1875,130.7314 2109.5313,130.7314 Q2110.1563,130.7314 2110.75,130.4658 Q2111.3438,130.1845 2111.9688,129.6064 L2111.9688,132.3252 Z " fill="#000000"/><text fill="#D9B8FF" font-family="Helvetica" font-size="17" lengthAdjust="spacing" textLength="427" x="2128" y="132.5698">azure_machine_learning_registry_model_container</text></g><!--class microsoft_graph_service_principal--><g id="elem_microsoft_graph_service_principal"><rect codeLine="41" fill="#3D176E" height="39.7891" id="microsoft_graph_service_principal" rx="2.5" ry="2.5" style="stroke:#000D19;stroke-width:0.5;" width="324" x="2598.5" y="106.79"/><ellipse cx="2613.5" cy="126.6845" fill="#ADD1B2" rx="11" ry="11" style="stroke:#181818;stroke-width:1.0;"/><path d="M2616.4688,132.3252 Q2615.8906,132.622 2615.25,132.7627 Q2614.6094,132.9189 2613.9063,132.9189 Q2611.4063,132.9189 2610.0781,131.2783 Q2608.7656,129.622 2608.7656,126.497 Q2608.7656,123.372 2610.0781,121.7158 Q2611.4063,120.0595 2613.9063,120.0595 Q2614.6094,120.0595 2615.25,120.2158 Q2615.9063,120.372 2616.4688,120.6689 L2616.4688,123.3877 Q2615.8438,122.8095 2615.25,122.5439 Q2614.6563,122.2627 2614.0313,122.2627 Q2612.6875,122.2627 2612,123.3408 Q2611.3125,124.4033 2611.3125,126.497 Q2611.3125,128.5908 2612,129.6689 Q2612.6875,130.7314 2614.0313,130.7314 Q2614.6563,130.7314 2615.25,130.4658 Q2615.8438,130.1845 2616.4688,129.6064 L2616.4688,132.3252 Z " fill="#000000"/><text fill="#D9B8FF" font-family="Helvetica" font-size="17" lengthAdjust="spacing" textLength="282" x="2632.5" y="132.5698">microsoft_graph_service_principal</text></g><!--class microsoft_graph_user--><g id="elem_microsoft_graph_user"><rect codeLine="44" fill="#3D176E" height="39.7891" id="microsoft_graph_user" rx="2.5" ry="2.5" style="stroke:#000D19;stroke-width:0.5;" width="222" x="2957.5" y="106.79"/><ellipse cx="2972.5" cy="126.6845" fill="#ADD1B2" rx="11" ry="11" style="stroke:#181818;stroke-width:1.0;"/><path d="M2975.4688,132.3252 Q2974.8906,132.622 2974.25,132.7627 Q2973.6094,132.9189 2972.9063,132.9189 Q2970.4063,132.9189 2969.0781,131.2783 Q2967.7656,129.622 2967.7656,126.497 Q2967.7656,123.372 2969.0781,121.7158 Q2970.4063,120.0595 2972.9063,120.0595 Q2973.6094,120.0595 2974.25,120.2158 Q2974.9063,120.372 2975.4688,120.6689 L2975.4688,123.3877 Q2974.8438,122.8095 2974.25,122.5439 Q2973.6563,122.2627 2973.0313,122.2627 Q2971.6875,122.2627 2971,123.3408 Q2970.3125,124.4033 2970.3125,126.497 Q2970.3125,128.5908 2971,129.6689 Q2971.6875,130.7314 2973.0313,130.7314 Q2973.6563,130.7314 2974.25,130.4658 Q2974.8438,130.1845 2975.4688,129.6064 L2975.4688,132.3252 Z " fill="#000000"/><text fill="#D9B8FF" font-family="Helvetica" font-size="17" lengthAdjust="spacing" textLength="180" x="2991.5" y="132.5698">microsoft_graph_user</text></g><!--link azure_machine_learning_registry to azure_machine_learning_registry_code_container--><g id="link_azure_machine_learning_registry_azure_machine_learning_registry_code_container"><path codeLine="47" d="M1635.15,36.62 C1387.27,50.32 896.09,78.24 479.5,106.79 C473.86,107.18 474.1349,107.144 468.3749,107.554 " fill="none" id="azure_machine_learning_registry-to-azure_machine_learning_registry_code_container" style="stroke:#1A83AF;stroke-width:2.0;"/><polygon fill="#1A83AF" points="462.39,107.98,471.6513,111.3309,467.3774,107.625,471.0833,103.3511,462.39,107.98" style="stroke:#1A83AF;stroke-width:2.0;"/></g><!--link azure_machine_learning_registry to azure_machine_learning_registry_component_container--><g id="link_azure_machine_learning_registry_azure_machine_learning_registry_component_container"><path codeLine="48" d="M1635.1,42.93 C1453.74,59.94 1163.8838,87.1202 965.2938,105.7302 " fill="none" id="azure_machine_learning_registry-to-azure_machine_learning_registry_component_container" style="stroke:#1A83AF;stroke-width:2.0;"/><polygon fill="#1A83AF" points="959.32,106.29,968.6539,109.4328,964.2982,105.8235,967.9075,101.4677,959.32,106.29" style="stroke:#1A83AF;stroke-width:2.0;"/></g><!--link azure_machine_learning_registry to azure_machine_learning_registry_data_container--><g id="link_azure_machine_learning_registry_azure_machine_learning_registry_data_container"><path codeLine="49" d="M1691.46,47.27 C1599.54,64.4 1472.0886,88.1413 1380.2286,105.2513 " fill="none" id="azure_machine_learning_registry-to-azure_machine_learning_registry_data_container" style="stroke:#1A83AF;stroke-width:2.0;"/><polygon fill="#1A83AF" points="1374.33,106.35,1383.9103,108.6344,1379.2455,105.4344,1382.4454,100.7696,1374.33,106.35" style="stroke:#1A83AF;stroke-width:2.0;"/></g><!--link azure_machine_learning_registry to azure_machine_learning_registry_environment_container--><g id="link_azure_machine_learning_registry_azure_machine_learning_registry_environment_container"><path codeLine="50" d="M1795.5,47.22 C1795.5,64.36 1795.5,83.27 1795.5,100.41 " fill="none" id="azure_machine_learning_registry-to-azure_machine_learning_registry_environment_container" style="stroke:#1A83AF;stroke-width:2.0;"/><polygon fill="#1A83AF" points="1795.5,106.41,1799.5,97.41,1795.5,101.41,1791.5,97.41,1795.5,106.41" style="stroke:#1A83AF;stroke-width:2.0;"/></g><!--link azure_machine_learning_registry to azure_machine_learning_registry_model_container--><g id="link_azure_machine_learning_registry_azure_machine_learning_registry_model_container"><path codeLine="51" d="M1901.12,47.27 C1994.44,64.4 2123.9285,88.1573 2217.1885,105.2673 " fill="none" id="azure_machine_learning_registry-to-azure_machine_learning_registry_model_container" style="stroke:#1A83AF;stroke-width:2.0;"/><polygon fill="#1A83AF" points="2223.09,106.35,2214.9596,100.7916,2218.1721,105.4477,2213.5159,108.6603,2223.09,106.35" style="stroke:#1A83AF;stroke-width:2.0;"/></g><!--link azure_machine_learning_registry to microsoft_graph_service_principal--><g id="link_azure_machine_learning_registry_microsoft_graph_service_principal"><path codeLine="52" d="M1955.64,43.78 C2114.29,59.57 2364.2,84.57 2580.5,106.79 C2586.28,107.39 2586.2023,107.3682 2592.1523,107.9882 " fill="none" id="azure_machine_learning_registry-to-microsoft_graph_service_principal" style="stroke:#1A83AF;stroke-width:2.0;"/><polygon fill="#1A83AF" points="2598.12,108.61,2589.583,103.6988,2593.1469,108.0918,2588.7539,111.6557,2598.12,108.61" style="stroke:#1A83AF;stroke-width:2.0;"/></g><!--link azure_machine_learning_registry to microsoft_graph_user--><g id="link_azure_machine_learning_registry_microsoft_graph_user"><path codeLine="53" d="M1955.61,34.99 C2177.31,45.72 2590.11,68.92 2940.5,106.79 C2945.97,107.38 2945.6155,107.2923 2951.2655,107.9923 " fill="none" id="azure_machine_learning_registry-to-microsoft_graph_user" style="stroke:#1A83AF;stroke-width:2.0;"/><polygon fill="#1A83AF" points="2957.22,108.73,2948.7801,103.6538,2952.2579,108.1152,2947.7965,111.5931,2957.22,108.73" style="stroke:#1A83AF;stroke-width:2.0;"/></g><!--SRC=[hP91Jy9048Nl_HMRS2O1YG8Naqf2z4ACU3Ec6NQdxORkRZExXO3nlzkAcD825UobXyutxxtPcLWAPAXIjs4ArGB9UdOfTGe4Ylb4PZqnYI7M2KC81yDgSMgqQmHce90zOh929pbKYTTOygL6QzbDgVG0V1cHoRJOoJi2RVCIQbUY9WbOwpj7Sf4vB8KHuyKe3AjaLRGp4FtX7TOmGmBf1-drUg8_hYADLcVd_YNcSekiNtwqcN5OYrcp-AREfYo8KiZQeFlwoOpF88JK4Rij_NlPPIADTF1_7eCmwu8E8R5b6-kGqBXDYfFQL3WUYN1u57uw1NkyU3e6summKC1ZgJ5844ZdxW5X9AsZ3VlmlC-_eG4t0lEFTY2BiIxgLAdH-K5Urox0mNMTg5UIZ5PNMwjyvkHugvASZ3MX2oA2D0uiqafo35AIciiKadDmPlTYJGlgldNw_cZWJz-xznUkg6tjsXBRDJXSSxlQHm-XNOlAgLmctdXC_vChpitx0W00]--></g></svg>

<svg xmlns="http://www.w3.org/2000/svg" width="3186" height="152" viewBox="0 0 3186 152"><rect width="320" height="39.789" x="1635.5" y="7" fill="#3D176E" rx="2.5" ry="2.5" style="stroke:#000d19;stroke-width:.5"/><circle cx="1650.5" cy="26.895" r="11" fill="#ADD1B2" style="stroke:#181818;stroke-width:1"/><path d="M1653.469 32.535q-.578.297-1.219.438-.64.156-1.344.156-2.5 0-3.828-1.64-1.312-1.657-1.312-4.782t1.312-4.781q1.328-1.656 3.828-1.656.703 0 1.344.156.656.156 1.219.453v2.719q-.625-.578-1.219-.844-.594-.281-1.219-.281-1.343 0-2.031 1.078-.687 1.062-.687 3.156t.687 3.172q.688 1.062 2.031 1.062.625 0 1.219-.265.594-.281 1.219-.86z"/><text x="1669.5" y="32.78" fill="#D9B8FF" font-family="Helvetica" font-size="17" textLength="278">azure_machine_learning_registry</text><rect width="455" height="39.789" x="7" y="106.79" fill="#3D176E" rx="2.5" ry="2.5" style="stroke:#000d19;stroke-width:.5"/><circle cx="22" cy="126.684" r="11" fill="#ADD1B2" style="stroke:#181818;stroke-width:1"/><path d="M24.969 132.325q-.578.297-1.219.438-.64.156-1.344.156-2.5 0-3.828-1.64-1.312-1.657-1.312-4.782t1.312-4.781q1.328-1.656 3.828-1.656.703 0 1.344.156.656.156 1.219.453v2.719q-.625-.579-1.219-.844-.594-.281-1.219-.281-1.343 0-2.031 1.078-.687 1.062-.687 3.156t.687 3.172q.688 1.062 2.031 1.062.625 0 1.219-.265.594-.281 1.219-.86z"/><text x="41" y="132.57" fill="#D9B8FF" font-family="Helvetica" font-size="17" textLength="413">azure_machine_learning_registry_code_container</text><rect width="511" height="39.789" x="497" y="106.79" fill="#3D176E" rx="2.5" ry="2.5" style="stroke:#000d19;stroke-width:.5"/><circle cx="512" cy="126.684" r="11" fill="#ADD1B2" style="stroke:#181818;stroke-width:1"/><path d="M514.969 132.325q-.578.297-1.219.438-.64.156-1.344.156-2.5 0-3.828-1.64-1.312-1.657-1.312-4.782t1.312-4.781q1.328-1.656 3.828-1.656.703 0 1.344.156.656.156 1.219.453v2.719q-.625-.579-1.219-.844-.594-.281-1.219-.281-1.343 0-2.031 1.078-.687 1.062-.687 3.156t.687 3.172q.688 1.062 2.031 1.062.625 0 1.219-.265.594-.281 1.219-.86z"/><text x="531" y="132.57" fill="#D9B8FF" font-family="Helvetica" font-size="17" textLength="469">azure_machine_learning_registry_component_container</text><rect width="454" height="39.789" x="1043.5" y="106.79" fill="#3D176E" rx="2.5" ry="2.5" style="stroke:#000d19;stroke-width:.5"/><circle cx="1058.5" cy="126.684" r="11" fill="#ADD1B2" style="stroke:#181818;stroke-width:1"/><path d="M1061.469 132.325q-.578.297-1.219.438-.64.156-1.344.156-2.5 0-3.828-1.64-1.312-1.657-1.312-4.782t1.312-4.781q1.328-1.656 3.828-1.656.703 0 1.344.156.656.156 1.219.453v2.719q-.625-.579-1.219-.844-.594-.281-1.219-.281-1.343 0-2.031 1.078-.687 1.062-.687 3.156t.687 3.172q.688 1.062 2.031 1.062.625 0 1.219-.265.594-.281 1.219-.86z"/><text x="1077.5" y="132.57" fill="#D9B8FF" font-family="Helvetica" font-size="17" textLength="412">azure_machine_learning_registry_data_container</text><rect width="526" height="39.789" x="1532.5" y="106.79" fill="#3D176E" rx="2.5" ry="2.5" style="stroke:#000d19;stroke-width:.5"/><circle cx="1547.5" cy="126.684" r="11" fill="#ADD1B2" style="stroke:#181818;stroke-width:1"/><path d="M1550.469 132.325q-.578.297-1.219.438-.64.156-1.344.156-2.5 0-3.828-1.64-1.312-1.657-1.312-4.782t1.312-4.781q1.328-1.656 3.828-1.656.703 0 1.344.156.656.156 1.219.453v2.719q-.625-.579-1.219-.844-.594-.281-1.219-.281-1.343 0-2.031 1.078-.687 1.062-.687 3.156t.687 3.172q.688 1.062 2.031 1.062.625 0 1.219-.265.594-.281 1.219-.86z"/><text x="1566.5" y="132.57" fill="#D9B8FF" font-family="Helvetica" font-size="17" textLength="484">azure_machine_learning_registry_environment_container</text><rect width="469" height="39.789" x="2094" y="106.79" fill="#3D176E" rx="2.5" ry="2.5" style="stroke:#000d19;stroke-width:.5"/><circle cx="2109" cy="126.684" r="11" fill="#ADD1B2" style="stroke:#181818;stroke-width:1"/><path d="M2111.969 132.325q-.578.297-1.219.438-.64.156-1.344.156-2.5 0-3.828-1.64-1.312-1.657-1.312-4.782t1.312-4.781q1.328-1.656 3.828-1.656.703 0 1.344.156.656.156 1.219.453v2.719q-.625-.579-1.219-.844-.594-.281-1.219-.281-1.343 0-2.031 1.078-.687 1.062-.687 3.156t.687 3.172q.688 1.062 2.031 1.062.625 0 1.219-.265.594-.281 1.219-.86z"/><text x="2128" y="132.57" fill="#D9B8FF" font-family="Helvetica" font-size="17" textLength="427">azure_machine_learning_registry_model_container</text><rect width="324" height="39.789" x="2598.5" y="106.79" fill="#3D176E" rx="2.5" ry="2.5" style="stroke:#000d19;stroke-width:.5"/><circle cx="2613.5" cy="126.684" r="11" fill="#ADD1B2" style="stroke:#181818;stroke-width:1"/><path d="M2616.469 132.325q-.578.297-1.219.438-.64.156-1.344.156-2.5 0-3.828-1.64-1.312-1.657-1.312-4.782t1.312-4.781q1.328-1.656 3.828-1.656.703 0 1.344.156.656.156 1.219.453v2.719q-.625-.579-1.219-.844-.594-.281-1.219-.281-1.343 0-2.031 1.078-.687 1.062-.687 3.156t.687 3.172q.688 1.062 2.031 1.062.625 0 1.219-.265.594-.281 1.219-.86z"/><text x="2632.5" y="132.57" fill="#D9B8FF" font-family="Helvetica" font-size="17" textLength="282">microsoft_graph_service_principal</text><rect width="222" height="39.789" x="2957.5" y="106.79" fill="#3D176E" rx="2.5" ry="2.5" style="stroke:#000d19;stroke-width:.5"/><circle cx="2972.5" cy="126.684" r="11" fill="#ADD1B2" style="stroke:#181818;stroke-width:1"/><path d="M2975.469 132.325q-.578.297-1.219.438-.64.156-1.344.156-2.5 0-3.828-1.64-1.312-1.657-1.312-4.782t1.312-4.781q1.328-1.656 3.828-1.656.703 0 1.344.156.656.156 1.219.453v2.719q-.625-.579-1.219-.844-.594-.281-1.219-.281-1.343 0-2.031 1.078-.687 1.062-.687 3.156t.687 3.172q.688 1.062 2.031 1.062.625 0 1.219-.265.594-.281 1.219-.86z"/><text x="2991.5" y="132.57" fill="#D9B8FF" font-family="Helvetica" font-size="17" textLength="180">microsoft_graph_user</text><path fill="none" d="M1635.15 36.62c-247.88 13.7-739.06 41.62-1155.65 70.17-5.64.39-5.365.354-11.125.764" style="stroke:#1a83af;stroke-width:2"/><path fill="#1A83AF" d="m462.39 107.98 9.261 3.35-4.274-3.705 3.706-4.274z" style="stroke:#1a83af;stroke-width:2"/><path fill="none" d="M1635.1 42.93c-181.36 17.01-471.216 44.19-669.806 62.8" style="stroke:#1a83af;stroke-width:2"/><path fill="#1A83AF" d="m959.32 106.29 9.334 3.143-4.356-3.61 3.61-4.355z" style="stroke:#1a83af;stroke-width:2"/><path fill="none" d="M1691.46 47.27c-91.92 17.13-219.371 40.871-311.231 57.981" style="stroke:#1a83af;stroke-width:2"/><path fill="#1A83AF" d="m1374.33 106.35 9.58 2.284-4.665-3.2 3.2-4.664z" style="stroke:#1a83af;stroke-width:2"/><path fill="none" d="M1795.5 47.22v53.19" style="stroke:#1a83af;stroke-width:2"/><path fill="#1A83AF" d="m1795.5 106.41 4-9-4 4-4-4z" style="stroke:#1a83af;stroke-width:2"/><path fill="none" d="M1901.12 47.27c93.32 17.13 222.809 40.887 316.069 57.997" style="stroke:#1a83af;stroke-width:2"/><path fill="#1A83AF" d="m2223.09 106.35-8.13-5.558 3.212 4.656-4.656 3.212z" style="stroke:#1a83af;stroke-width:2"/><path fill="none" d="M1955.64 43.78c158.65 15.79 408.56 40.79 624.86 63.01 5.78.6 5.702.578 11.652 1.198" style="stroke:#1a83af;stroke-width:2"/><path fill="#1A83AF" d="m2598.12 108.61-8.537-4.911 3.564 4.393-4.393 3.564z" style="stroke:#1a83af;stroke-width:2"/><path fill="none" d="M1955.61 34.99c221.7 10.73 634.5 33.93 984.89 71.8 5.47.59 5.115.502 10.765 1.202" style="stroke:#1a83af;stroke-width:2"/><path fill="#1A83AF" d="m2957.22 108.73-8.44-5.076 3.478 4.461-4.461 3.478z" style="stroke:#1a83af;stroke-width:2"/></svg>
